X:5
T:Pekkos Pers br\"ollopspolska
R:polska J
H:efter Hjort Anders
A:Bingsj\"o, Dalarna
Z:id:hn-jp-5
M:3/4
L:1/16
K:Gm
d2 | {g^f}g3g d2(3cdc B3B | (3BcBAG ^FGA^F D4- | D2D^F G^FGA BABc |
d2d2 dc=ec d4 | (5g^fg^fg d2(3cdc B3B | (3BcBAG ^FGA^F D4- |
D2D^F G^FGA BABc | dcA^F G6 :||: A2 | BFDF BABd fdfd |
(3cdcAc ecAc B3B | (3BcBAB G4 B3B | (3BcBAG ^F2A^F D3g | 
(5^f/g/^f/g/^f/g2 d3c A2Ac | BAG^F G6 :| 
<end>
<start>
